X: 36401
T: Seán Sa Cheo
R: reel
M: 4/4
K: Amixolydian
(3Bcd|e2 dg eA (3Bcd|e3c d2BA|Beed e3g|(3Bcd ge dG (3Bcd|
e2dg eA (3Bcd|e3c d3e|Beed e3g|(3Bcd ge dG (3Bcd||
cA A2 cA (3Bcd|cA A2 dG (3Bcd|cA A2 EAcA|(3Bcd ge dG (3Bcd|
cA A2 cA (3Bcd|cA A2 d3d|cA A2 eAeA|(3Bcd ge defg||
A3c EAcA|AB (3cBA E3F|F=GBG AGBG|G2 BG EFGE|
A3c EAcA|AB (3cBA E3F|FGGA AGEF|(3GFE (3FED ED (3Bcd||

